packages/foundations/assets/icons/functional/images/technology/augmented_reality_20.svg

<svg width="20" height="20" viewBox="0 0 20 20" fill="none" xmlns="http://www.w3.org/2000/svg">
<g clip-path="url(#clip0_187_556)">
<path fill-rule="evenodd" clip-rule="evenodd" d="M8.67083 14.886L10 15.5283L11.3271 14.887C11.8138 14.6591 12.3016 14.8924 12.4957 15.294C12.6898 15.6957 12.553 16.2114 12.0955 16.4616L10.3808 17.2881C10.1746 17.3877 9.9176 17.4184 9.61923 17.2881L7.90929 16.4616C7.47419 16.2513 7.29196 15.7281 7.50225 15.293C7.68019 14.9249 8.15642 14.6591 8.67083 14.886ZM4 10.6253C4.44608 10.6253 4.875 10.988 4.875 11.5003V13.0513L5.99425 13.5923C6.45444 13.8119 6.5954 14.3593 6.40128 14.7609C6.20716 15.1625 5.71684 15.3924 5.2327 15.1679L3.61923 14.3881C3.3506 14.2582 3.125 13.9671 3.125 13.6003V11.5003C3.125 11.017 3.51675 10.6253 4 10.6253ZM16 10.6253C16.4461 10.6253 16.875 10.9818 16.8682 11.5003L16.875 13.6003C16.875 13.8986 16.7233 14.1736 16.4773 14.3336L14.7958 15.1541C14.3607 15.3644 13.8375 15.1822 13.6272 14.7471C13.4331 14.3455 13.5791 13.804 14.0343 13.5785L15.124 13.0513L15.125 11.5003C15.125 10.9818 15.5539 10.6253 16 10.6253ZM12.4374 7.3941C13.455 7.3941 13.9637 7.84161 13.9637 8.73664C13.9637 9.10297 13.8736 9.38397 13.6934 9.57963C13.5599 9.72117 13.3606 9.83149 13.0956 9.91058C13.2716 10.0042 13.4179 10.1687 13.5345 10.4039C13.8434 11.0442 14.0756 11.5231 14.2308 11.8405C14.3219 12.0268 14.1691 12.2429 13.8207 12.2429C13.6478 12.2429 13.3451 12.1907 13.2335 11.9673L12.59 10.6193C12.5031 10.4361 12.4183 10.3123 12.3356 10.2478C12.2636 10.1916 12.148 10.1635 11.989 10.1635H11.6626V11.7357C11.6626 12.0158 11.4355 12.2429 11.1554 12.2429C10.8753 12.2429 10.6482 12.0158 10.6482 11.7357V7.79816C10.6482 7.575 10.8291 7.3941 11.0523 7.3941H12.4374ZM7.91414 7.3941C8.12647 7.3941 8.31872 7.51674 8.3982 7.72743L9.94112 11.8186C10.0275 12.0476 9.9865 12.2429 9.57809 12.2429C9.21507 12.2429 9.07974 12.1516 8.98814 11.9247L8.70076 11.2125H6.9007L6.65865 11.8641C6.55678 12.1383 6.41665 12.2429 6.05358 12.2429C5.69055 12.2429 5.60298 12.0623 5.69055 11.8337L7.26373 7.72743C7.33229 7.5485 7.49002 7.3941 7.68727 7.3941H7.91414ZM7.83322 8.68923L7.19032 10.4893H8.47607L7.83322 8.68923ZM12.3293 8.15591C12.6473 8.15591 12.8412 8.24645 12.9112 8.42754C12.9451 8.51288 12.9621 8.64818 12.9621 8.83343C12.9621 9.0603 12.9207 9.21849 12.8381 9.308C12.7384 9.41831 12.5667 9.47347 12.3229 9.47347H11.6604V8.15591H12.3293ZM6.37175 5.22369C6.56314 5.62662 6.40128 6.19023 5.95681 6.38948L4.875 6.90227V8.50027C4.875 9.01742 4.44608 9.37527 4 9.37527C3.55392 9.37527 3.132 9.01742 3.125 8.50027V6.35027C3.125 6.05001 3.27864 5.77358 3.52708 5.61406L5.20596 4.80875C5.64247 4.60141 6.16441 4.78718 6.37175 5.22369ZM14.6979 4.76624L16.3754 5.55991C16.6467 5.68874 16.8304 5.94612 16.8679 6.23897L16.875 8.50027C16.875 8.98352 16.4832 9.37527 16 9.37527C15.5539 9.37527 15.1858 9.04148 15.1318 8.61003L15.124 6.90227L13.9933 6.36581C13.5904 6.17441 13.3548 5.68115 13.5713 5.22369C13.7877 4.76624 14.2483 4.58279 14.6979 4.76624ZM10.2538 2.66289L12.0253 3.49361C12.4618 3.70095 12.6476 4.2229 12.4403 4.6594C12.2489 5.06233 11.7894 5.25162 11.3765 5.11528L9.999 4.46827L8.68845 5.09196C8.28551 5.28335 7.78871 5.17679 7.54138 4.72391C7.29405 4.27103 7.50225 3.7104 7.95353 3.49361L9.62458 2.70991C9.82255 2.61587 10.047 2.6002 10.2538 2.66289Z" fill="#1A1C1F"/>
</g>
<defs>
<clipPath id="clip0_187_556">
<rect width="20" height="20" fill="white"/>
</clipPath>
</defs>
</svg>

<svg xmlns="http://www.w3.org/2000/svg" width="20" height="20" fill="none"><g clip-path="url(#a)"><path fill="#1A1C1F" fill-rule="evenodd" d="m8.67 14.886 1.33.642 1.327-.641a.87.87 0 0 1 1.169.407c.194.402.057.917-.4 1.168l-1.715.826a.88.88 0 0 1-.762 0l-1.71-.826a.875.875 0 0 1-.407-1.169.88.88 0 0 1 1.169-.407M4 10.626a.88.88 0 0 1 .875.874v1.551l1.12.541a.88.88 0 0 1 .406 1.169.87.87 0 0 1-1.168.407l-1.614-.78a.88.88 0 0 1-.494-.788v-2.1c0-.483.392-.875.875-.875m12 0c.446 0 .875.356.868.874l.007 2.1a.88.88 0 0 1-.398.734l-1.681.82a.875.875 0 0 1-1.169-.407.886.886 0 0 1 .407-1.168l1.09-.528.001-1.55c0-.52.429-.876.875-.876m-3.563-3.232q1.527 0 1.527 1.343 0 .549-.27.843-.2.211-.598.33.264.141.438.494.465.96.697 1.437c.09.186-.062.402-.41.402-.173 0-.476-.052-.588-.276l-.643-1.348q-.13-.275-.254-.371-.108-.084-.347-.084h-.326v1.572a.507.507 0 0 1-1.015 0V7.798c0-.223.181-.404.404-.404zm-4.523 0a.51.51 0 0 1 .484.333l1.543 4.092c.086.229.045.424-.363.424-.363 0-.498-.091-.59-.318l-.287-.713H6.9l-.242.652c-.102.274-.242.379-.605.379s-.451-.18-.363-.41l1.573-4.106c.068-.179.226-.333.423-.333zm-.08 1.295-.644 1.8h1.286zm4.495-.533q.477 0 .582.272.051.128.051.405 0 .34-.124.475-.15.165-.515.165h-.663V8.156zM6.372 5.224c.191.403.03.966-.415 1.165l-1.082.513V8.5A.877.877 0 0 1 4 9.375a.88.88 0 0 1-.875-.875V6.35c0-.3.154-.576.402-.736l1.679-.805a.875.875 0 0 1 1.166.415m8.326-.458 1.677.794a.88.88 0 0 1 .493.679l.007 2.261a.875.875 0 0 1-1.743.11l-.008-1.708-1.13-.536c-.404-.192-.64-.685-.423-1.142.217-.458.677-.641 1.127-.458m-4.444-2.103 1.771.83a.875.875 0 0 1-.649 1.622L10 4.468l-1.31.624c-.403.191-.9.085-1.148-.368s-.039-1.014.413-1.23l1.67-.784a.88.88 0 0 1 .63-.047" clip-rule="evenodd"/></g><defs><clipPath id="a"><path fill="#fff" d="M0 0h20v20H0z"/></clipPath></defs></svg>
